X:1
T:Title
%%score [ 1 2 3 ]
L:1/8
Q:1/4=352
M:3/2
K:C
V:1 treble nm="MusicXML Part"
V:2 treble nm="MusicXML Part"
V:3 treble-8 nm="MusicXML Part"
V:1
 c12 | A2 B2 c2 d4 B2 | c4 z4 d4 | c8 B4 | A4 z4 B4 | c4 d2 c2 B2 A2 | %6
w: O||||* Ve-|ne- ci- e, mun- di|
 (3G2 A2 _B2 (3A2 G2 F2 (3E2 F2 D2 | F12 | z12 | c4 A2 B2 G2 A2 | B4 z4 d4 | c4 z4 A4 | G4 z4 E4 | %13
w: splen- * * * * * * * *|dor,||I- ta- li- e cum|sis de-|cor, in|te vi-|
 D4 z2 F2 E2 F2 | G4 z2 A2 F2 G2 | A4 _B2 A4 G2 | A2 A2 A4 z4 | c4 B4 A4 | G4 z4 z4 | E4 F2 G4 A2 | %20
w: get o- mnis li-|vor re- * gu-|lis * mun- *|di- ci- e.|Gau- de, ma-|ter|ma- ris, sa- *|
 B12- | B12 | c4 d2 c2 B2 A2 | G4 F2 F4 E2 | F12 | z12 | c4 c4 B4 | A4 G2 F4 E2 | D4 E4 D4 | %29
w: lus,||qua pur- * ga- *|tur quis- que ma-|lus.||Ter- re pon-|ti tu * *|es * pa-|
 C4 F8 | C12 | z12 | d4 c4 _B4 | (3A2 _B2 c2 (3B2 A2 G2 (3:2:2A4 ^F2 | G4 z4 z4 | d4 c2 c4 _B2 | %36
w: lus. *|||mi- se- ro-|tum * * * * * ba- iu-|la.|Gau- de la- te,|
 d4 A2 G4 ^F2 | G4 z4 A2 B2 | c4 d2 c2 B2 A2 | G12 | D4 E2 D2 C2 D2 | E4 G2 ^F4 E2 | G4 z4 E4 | %43
w: vir- go di- *|gna, prin- ci-|pa- tus por- tas si-|gna|ti- bi so- li sunt|con- di- * *|gna du-|
 F8 G4 | A2 B2 c2 d4 c2 | d12 | z12 | z12 | d4 c8 | d4 c2 B4 A2 | c4 z2 A2 B2 c2 | A12- | A12 | %53
w: ca- lis|do- * mi- ni- *|i.|||Gau- de,|vic- * * *|trix ex- te- ro-|rum,||
 c4 _B4 A4 | G4 z2 F2 E2 F2 | G4 z2 A2 G2 A2 | _B4 z2 c2 B2 c2 | d4 z2 c2 d2 _B2 | A4 G2 G4 ^F2 | %59
w: nam po- te-|stas Ve- ne- to-|rum nul- li ce-|dit per- ver- so-|rum, do- mans, *|ter- ram, ma- ri-|
 G12 | z12 | G6 A2 G2 A2 | B2 c2 d2 c4 B2 | c12 | A4 G4 F4 | E4 z2 F2 D2 E2 | F4 z2 G2 F2 G2 | %67
w: a;||Nam tu vin- *|cis ma- nus * for-|tis,|pa- cem red-|dis tu- is por-|tis, et dis- rum-|
 A4 F2 E2 F2 D2 | E12 | z2 A4 G4 F2- | F2 E4 D4 E2 | F12 | z12 | z12 | c4 d2 c2 B2 A2 | G8 A4 | %76
w: pis fau- ces mor- *|tis,|tu- o- rum|* fi- de- li-|um.|||Pro te ca- nit vo-|ce pi-|
 B12 | c4 c2 A2 B2 c2 | e2 d4 c4 B2 | c4 z4 z4 | G4 _B2 A4 G2 | A12 | E4 ^F4 F4 | G12 | d6 B4 G2- | %85
w: a|tu- i sta- tum in|* hac vi- *|a|El * con- ser-|vet|et Ma- ri-|a|Jo- han- *|
 G2 D4 E2 D4 | z2 G2 G4 A4 | B12- | B12 | c4 A4 z2 A2 | A4 F4 z2 F2 | F4 D4 z2 D2 | C6 F4 A2- | %93
w: * nes * *|Ci- co- ni-|a.||A- * *||||
 A2 c4 A4 F2- | F2 D4 C2 F4 | z2 F2 E2 F2 C4 | z2 A2 G2 A2 F4 | z2 c2 B2 c2 A4 | %98
w: |||||
 z2 c2 c2 A2 z2 B2 | B2 G2 z2 A2 A2 F2 | E12 | z2 F2 z2 G2 z2 G2 | A4 z2 A2 B2 B2 | %103
w: |||||
 z2 B2 c4 z2 c2 | B12- | B12 | c12 |] %107
w: |men.|||
V:2
 F8 C4 | F4 E4 D4 | C4 F4 z4 | C6 F4 G2 | A4 D4 z4 | C12 | G4 A4 G4 | F12 | c6 B2 A2 G2 | F8 E4 | %10
w: O *|||Mi- cha- *|* el,|qui|Ste- na do-|mus|tu * * *|du- ca-|
 D4 F2 E2 F2 D2 | C12 | z4 c4 _B4 | z4 A4 G4 | z2 E2 F2 E2 D4 | z2 F2 G2 A2 ^B4 | z4 A2 A2 A4 | %17
w: tus por- * tas o-|nus,|ho- nor|ti- bi,|qui- a bo- nus|vi- tam du- ces|ce- li- bem.|
 z12 | c4 B4 A4 | G4 F2 E4 D2 | D12- | D12 | z12 | z12 | c4 d2 c2 B2 A2 | G4 F2 F4 E2 | %26
w: |Phe- bo com-|par, prin- ceps al-|me,||||ti- bi * mun- *|dus pro- mit 'sal-|
 F4 z2 E2 F2 G2 | A4 B4 c4 | d6 c4 B2 | c4 z4 d4 | c8 _B4 | (3A2 _B2 c2 (3B2 A2 G2 (3:2:2A4 ^F2 | %32
w: ve'; spar- gis tu-|is fru- ctum|pal- * *|me, vi-|ctor sem-|per * * no- * * bi- *|
 G4 z4 z4 | z12 | d4 c2 d2 d2 _B2 | A4 A2 G4 F2 | A4 z4 z4 | c4 d2 c2 B2 c2 | A4 A2 G4 F2 | E12 | %40
w: lis.||Cle- mens, ju- stus *|ap- pro- ba- *|ris,|de- cus mo- * *|rum ap- pel- la-|ris,|
 F4 G4 G4 | A4 z4 B2 c2 | d6 c4 B2 | A12 | c2 B2 A2 G2 A2 F2 | G12 | z12 | z12 | A4 G8 | A4 F8 | %50
w: tu de- fen-|sor es- ti-|ma- * *|ris|fi- de- i ca- tho- li-|ce.|||Bo- nis|pan- dis|
 G4 F2 E4 D2 | F12 | C12 | F4 G4 A4 | _B4 A4 z2 c2 | _B2 A2 G4 z2 E2 | F2 F2 G4 z2 G2 | A2 G2 F8 | %58
w: mu- nus di- *|gnum,||ma- * lis|fun- dis pe-|ne si- gnum le-|ges su- as ad|con- di- gnum|
 E2 F2 E2 D2 D2 C2 | D12 | G4 A2 B4 A2 | c2 B2 A2 G4 F2 | E6 F2 D2 E2 | F12 | E4 F2 G4 A2 | %65
w: gla- di- o ju- sti- ti-|e.|Sa- gax, pru- dens,|mi- * tis * *|pa- * * *|ter,|lex di- vi- na,|
 B2 c2 d2 c4 B2 | c4 d8 | d2 c4 B2 A2 B2 | G12 | F4 E4 F4 | G2 A2 B2 c4 B2 | c12 | z12 | z12 | %74
w: * cum sis * *|ma- ter|men- * * tis *|vir-|tus ti- bi|fra- * * * *|ter,|||
 G4 A4 G4 | C4 D2 E4 F2 | E12 | F2 G2 A4 G4 | A4 G4 ^F4 | G12 | E4 F2 E2 F2 D2 | E4 z4 A2 B2 | %82
w: ze- la- tor|re- i pub- li-|ce.|Se- dem pre- cor|ti- bi da-|ri,|De- o * ce- *|li fa- *|
 c2 d2 e2 d4 c2 | d12 | d4 B4 G4 | D4 E2 F2 G4 | E4 z2 D2 E2 C2 | D4 G4 F4 | E12 | F4 c4 A4 | %90
w: mu- * la- * *|ri,|e- jus thro-|no co- pu- la-|ri per e- ter-|na se- cu-|la.|A- * *|
 z2 A2 A4 F4 | z2 F2 F4 D4 | z2 D2 C4 F4 | A4 c4 A4 | F4 D4 C4 | F4 z2 F2 E2 F2 | C4 z2 A2 G2 A2 | %97
w: |||||||
 F4 z2 c2 B2 c2 | A4 z2 A2 B2 B2 | z2 G2 A2 A2 z2 F2 | G12 | D2 z2 F2 z2 D2 z2 | %102
w: |||||
 z2 F2 G2 G2 z2 A2 | D4 z2 E2 F2 F2 | E12- | E12 | F12 |] %107
w: ||men.|||
V:3
 F12- | F12 | z12 | z12 | z12 | z12 | c12 | F12- | F12 | z12 | G4 A4 B4 | c12- | c12 | _B4 A4 c4 | %14
w: ||||||||||I- ta- li-|e|||
 G4 c4 _B4 | A4 G8 | d12 | c12- | c12- | c12 | G12- | G12 | F12 | c4 G8 | F12 | G4 A4 G4 | F12 | %27
w: |||||||||||mun- di- ci-|e.|
 z12 | z12 | c4 F8 | c12 | d4 A8 | G12 | A4 _B4 A4 | G12 | d4 _e8 | d12 | c12 | F12 | c12 | _B12 | %41
w: ||||||quis- que ma-|lus.|||||||
 A12 | G12 | d12 | c4 _B4 A4 | G12 | d4 e4 f4 | g4 g2 f4 e2 | d4 e8 | d12 | c12 | F12- | F12 | %53
w: |||||Gau- de ma-|ter la- te di-|gna, *|||||
 z12 | G4 A8 | G4 c8 | _B4 _e8 | d12 | c4 _B4 A4 | G12- | G12 | c12 | G12 | F12 | z2 A2 c4 d4 | %65
w: ||||||||||||
 z2 G2 A4 G4 | z2 F2 _B4 B4 | A12 | c12 | d4 e4 d4 | G4 A4 G4 | F12 | f4 e4 e4 | d4 f2 e4 d2 | %74
w: |||||||Pro te ca-|nit vo- ce pi-|
 c12 | g12- | g12 | f8 e4 | d4 e4 d4 | c12 | c4 _B8 | A12- | A12 | G12- | G12- | G12 | c12 | G12- | %88
w: a||||||||||||||
 G12 | F12- | F12- | F12- | F12 | c12 | F12- | F12 | c8 F4 | c8 F4 | f8 e4- | e4 d8 | c12 | _B12 | %102
w: |con-||||ser-|vat||hec Ma-|ri- a|Jo- han-|* nes|Ci-||
 A8 G4- | G4 F8 | G12- | G12 | F12 |] %107
w: co- *|* ni-|||a.|

